X:1
T:Violin Caprice No. 2 in B Minor
T:Violin Caprice No. 2 in B Minor
T:Op. 1, No. 2
T:Niccolò Paganini
C:Niccolò Paganini
%%score ( 1 2 )
L:1/8
Q:1/4=97
M:6/8
K:D
V:1 treble nm="Violin" snm="Vln."
V:2 treble 
V:1
"^Moderato""_dolce" .B/(b/^a/b/).=a/.b/ .g/.b/.f/.b/.e/.b/ | d/b/c/b/B/b/ ^A/b/B/b/d/b/ | %2
 .c/(^a/g/a/)f/a/ e/a/d/a/c/a/ | B/^a/^A/a/B/a/ c/a/d/a/e/a/ | .d/(b/F/b/)E/b/ D/b/C/b/B,/b/ | %5
 .G/(d'/B/d'/)A/d'/ G/d'/F/d'/G/d'/ | F/(d'/B/d'/)G/d'/ F/d'/^E/d'/F/d'/ | %7
 ^E/(d'/d/d'/)c/d'/ B/d'/G/d'/E/d'/ | F/(c'/^A/c'/)G/c'/ F/c'/F/c'/F/c'/ | %9
 G/(b/d/d'/)A/c'/ G/b/F/b/^E/b/ | F/(^a/x/!1!f/)^e/^g/ =e/a/d/b/^A/c'/ | %11
 B/(d'/G/b/)G/a/ G/g/G/f/G/^e/ | F/(f/F/^a/)G/^e/ F/(f/F/a/)G/e/ | %13
 F/(f/F/^a/)F/c'/ F/f'/F/c'/F/a/ | [Ff]3 !fermata!z2 z | d/(=a/^g/a/)=g/a/ ^e/a/f/a/=e/a/ | %16
 d/a/A/a/G/a/ F/a/E/a/D/a/ | C/(a/^g/a/)=g/a/ ^d/a/e/a/=d/a/ | c/a/G/a/F/a/ E/a/A/a/G/a/ | %19
 F/(d'/a/d'/)^g/d'/ a/d'/f/d'/d/(c'/ | =g/c'/)g/b/G/b/ E/b/C/b/c/(b/ | %21
 f/b/)f/a/F/a/ D/a/B,/a/B/(a/ | e/a/)e/g/E/g/ C/g/A,/g/A/(g/ | %23
 d/f/) [af']/D/[^g^e']/D/ [af']/D/[=g=e']/D/[fd']/D/ | %24
 ([ec']/A/) [A,c]/A/[B,d]/A/ [Ce]/A/[Df]/A/[Eg]/A/ | %25
 ([Df]/D/) [af']/D/[^g^e']/D/ [af']/D/[=g=e']/D/[fd']/D/ | %26
 ([ec']/A/) [A,c]/A/[B,d]/A/ [Ce]/A/[Df]/A/[Eg]/A/ | %27
 ([Df]/D/) [fa']/D/[eg']/D/ [df']/D/[eg']/D/[fa']/D/ | (g/b'/)d/b'/B/b'/ G/b'/B/d''/^G/d''/ | %29
 A/c''/B/d''/c/e''/ d/f''/B/d''/G/b'/ | F/a'/A/f'/D/f'/ E/g'/G/e'/C/e'/ | %31
 D/[d'f']/D/[c'e']/D/[bd']/ D/[ac']/D/[gb]/D/[fa]/ | %32
 [bd']/G,/[ac']/G,/[gb]/G,/ [fa]/A,/[eg]/A,/[ce]/A,/ | d/(C/D/)(c/d/)(c'/ d'/)g/f/e/d/c/ :| %34
 .B/(B,/^A,/B,/)b/B,/ ^a/B,/=a/B,/^g/B,/ | =g/B,/f/B,/e/B,/ ^d/B,/=d/B,/c/B,/ | %36
 B/(b/^a/b/)B,/b/ =C/b/^C/b/D/b/ | ^D/b/E/b/F/b/ A/b/G/b/F/b/ | %38
 e'/(E/^D/E/)e'/E/ ^d'/E/=d'/E/c'/E/ | =c'/E/b/E/a/E/ ^g/E/=g/E/f/E/ | %40
 e/(e'/^d'/e'/)E/e'/ =F/e'/^F/e'/G/e'/ | ^G/e'/A/e'/B/e'/ d/e'/c/e'/B/e'/ | %42
 .a/(A/^G/A/)a/A/ a/A/^g/A/=g/A/ | f/(D/C/D/)d'/D/ d'/E/d'/=F/d'/^F/ | %44
 .g/(G/F/G/)g/G/ g/G/f/G/=f/G/ | e/(=C/B,/C/)=c'/C/ c'/D/c'/_E/c'/=E/ | %46
 =f/(=F/E/F/)=c'/F/ d'/F/_d'/F/c'/F/ | b/=F/_b/F/a/F/ _a/F/g/F/e/F/ | %48
 =f/(=F/E/F/)x/F/"_dim." =E/F/_E/F/D/F/ | _D/=F/=C/F/B,/F/ _B,/F/=B,/F/C/F/ | %50
!p! ^C/E/D/=F/_E/_G/ =E/=G/F/_A/^F/=A/ | G/_B/^G/=B/A/=c/ _B/_d/=B/=d/=c/_e/ | %52
 ^c/=e/d/=f/_e/_g/ =e/=g/=f/_a/^f/=a/ | g/_b/_a/_c'/=a/=c'/ b/(_d'/b/).g/.e/(c'/ | %54
 a/)_g/_e/(=b/^g/)=f/ d/(_b/=g/)=e/^c/(a/ | f/)_e/=c/(_a/=f/)d/ =B/(g/=e/)_d/_B/(_g/ | %56
 _e/)=c/A/(=f/d/)B/ ^G/(^e/d/)B/=G/e/ | ^F/(f/^e/f/)=E/a/ D/b/C/c'/B,/d'/ | %58
 ^A,/e'/B,/d'/C/c'/ D/b/E/b/^E/b/ | ^a/(F/^E/F/)=e'/^A/ d'/B/c'/c/b/d/ | %60
 ^a/e/b/d/c'/c/ d'/B/e'/B/^e'/B/ | .A/(f'/^e'/f'/)F/f'/ .G/(f'/e'/f'/)F/f'/ | %62
 .=E/(f'/^e'/f'/)=E/f'/ .F/(f'/^e'/f'/)=E/f'/ | D/(f'/^e'/f'/)D/f'/ =E/g'/D/f'/C/=e'/ | %64
 B,/d'/C/e'/D/f'/ C/e'/B,/d'/^A,/!fermata!c'/ | !fermata!z6 | %66
"_dolce"!mf! .B/(b/^a/b/)=a/b/ g/b/f/b/e/b/ | d/b/c/b/B/b/ ^A/b/B/b/d/b/ | %68
 .c/(^a/g/a/)f/a/ e/a/d/a/c/a/ | B/^a/^A/a/B/a/ c/a/d/a/e/a/ | %70
 .d/(b/^d/b/)e/(g/ c/=a/).=d/(f/B/g/) | .c/(e/^A/f/).B/(d/ G/B/).d/(^e/g/b/) | %72
 (F/^A/)(.c/.f/)(^a/g/) (.f/.a/)(c'/b/)(.a/.c'/) | %73
 (e'/d'/)(.c'/.g'/)(f'/e'/) (.d'/.c'/)(b/^a/)(.g/.f/) | %74
 (.b/.c'/.d'/)(b/c'/)(^a/ =c'/)(=a/b/)(^g/_b/)(=g/ | a/)(f/^g/)(^e/=g/)(=e/ f/)(^d/=f/)(=d/e/)(c/ | %76
 d/^e/)(.g/.e/.f/.B/){/d} Tc3 | (.B/.c/.d/)(B/c/)(^A/ =c/)(=A/B/)(^G/_B/)(=G/ | %78
 A/)(F/^G/)(^E/=G/)(=E/ F/)(^D/=F/)(=D/E/)(C/ | D/^E/)(.G/.E/.F/.B,/){/D} TC3 | %80
 .B,/(B/^A/B/).F/.f/ .B/(b/^a/b/).f/.f'/ | .b/(b'/^a'/b'/).f/.f'/ .B/(b/^a/b/).F/.f/ | %82
 .B,/(b/^a/b/)d/b/ B/b/F/b/D/b/ | [B,Fdb]3 !fermata!z2 z |] %84
V:2
 x6 | x6 | x6 | x6 | x6 | x6 | x6 | x6 | x6 | x6 | x !4!f/ x/ x x2 x | x6 | x6 | x6 | x6 | x6 | %16
 x6 | x6 | x6 | x6 | x6 | x6 | x6 | x6 | x6 | x6 | x6 | x6 | x6 | x6 | x6 | x6 | x6 | x6 :| x6 | %35
 x6 | x6 | x6 | x6 | x6 | x6 | x6 | x6 | x6 | x6 | x6 | x6 | x6 | x2 =F/ x/ x2 x | x6 | x6 | x6 | %52
 x6 | x6 | x6 | x6 | x6 | x6 | x6 | x6 | x6 | x6 | x6 | x6 | x6 | x6 | x6 | x6 | x6 | x6 | x6 | %71
 x6 | x6 | x6 | x6 | x6 | x6 | x6 | x6 | x6 | x6 | x6 | x6 | x6 |] %84

